docs/themes/v2/source/images/new/foot2.svg

<svg fill="none" height="18" viewBox="0 0 22 18" width="22" xmlns="http://www.w3.org/2000/svg"><path d="m6.91856 17.8763c8.30194 0 12.84274-6.8781 12.84274-12.84273 0-.19536 0-.38984-.0132-.58344.8834-.63896 1.6459-1.4301 2.2519-2.3364-.8238.36503-1.6977.60441-2.5925.71016.9423-.56409 1.6475-1.45132 1.9844-2.496557-.886.52576-1.8553.896287-2.8661 1.095597-1.3992-1.4877303-3.6224-1.851858-5.423-.888199s-2.7309 3.015449-2.2691 5.004839c-3.62923-.18194-7.01056-1.89611-9.3025-4.715917-1.198012 2.062407-.586091 4.700837 1.39744 6.025357-.71831-.02129-1.42095-.21506-2.04864-.56496v.0572c.000588 2.1486 1.51514 3.99915 3.6212 4.42465-.66451.1812-1.36173.2077-2.03808.0774.59131 1.8387 2.28587 3.0983 4.21696 3.1346-1.59831 1.2561-3.57275 1.938-5.6056 1.936-.359125-.0007-.7179-.0224-1.07448-.0651 2.06416 1.3246 4.46592 2.0272 6.91856 2.024" fill="#000" fill-opacity=".4"/></svg>

<svg width="22" height="18" viewBox="0 0 22 18" fill="none" xmlns="http://www.w3.org/2000/svg">
<path d="M6.91856 17.8763C15.2205 17.8763 19.7613 10.9982 19.7613 5.03357C19.7613 4.83821 19.7613 4.64373 19.7481 4.45013C20.6315 3.81117 21.394 3.02003 22 2.11373C21.1762 2.47876 20.3023 2.71814 19.4075 2.82389C20.3498 2.2598 21.055 1.37257 21.3919 0.327333C20.5059 0.853093 19.5366 1.22362 18.5258 1.42293C17.1266 -0.0648003 14.9034 -0.428928 13.1028 0.534731C11.3022 1.49839 10.3719 3.55018 10.8337 5.53957C7.20447 5.35763 3.82314 3.64346 1.5312 0.823653C0.333188 2.88606 0.945109 5.52449 2.92864 6.84901C2.21033 6.82772 1.50769 6.63395 0.88 6.28405C0.88 6.30253 0.88 6.32189 0.88 6.34125C0.880588 8.48985 2.39514 10.3404 4.5012 10.7659C3.83669 10.9471 3.13947 10.9736 2.46312 10.8433C3.05443 12.682 4.74899 13.9416 6.68008 13.9779C5.08177 15.234 3.10733 15.9159 1.07448 15.9139C0.715355 15.9132 0.35658 15.8915 0 15.8488C2.06416 17.1734 4.46592 17.876 6.91856 17.8728" fill="black" fill-opacity="0.4"/>
</svg>
